Assets/Icons/interaction/external-link.svg

<svg enable-background="new 0 0 60 60" viewBox="0 0 60 60" xmlns="http://www.w3.org/2000/svg"><path d="m49 30h-2c-.28 0-.5.22-.5.5v25h-33.5c-4.69 0-8.5-3.81-8.5-8.5v-33.5h23c1.38 0 2.5-1.12 2.5-2.5 0-.28-.22-.5-.5-.5h-26c-1.1 0-2 .9-2 2v34.5c0 6.35 5.15 11.5 11.5 11.5h34.5c1.1 0 2-.9 2-2v-26c0-.28-.22-.5-.5-.5z"/><path d="m56.5 1.5h-14c-.28 0-.5.22-.5.5 0 1.38 1.12 2.5 2.5 2.5h8.88l-30.09 30.09c-.2.2-.2.51 0 .71.98.98 2.56.98 3.54 0l28.67-28.68v8.88c0 1.38 1.12 2.5 2.5 2.5.28 0 .5-.22.5-.5v-14c0-1.1-.9-2-2-2z"/></svg>

<?xml version="1.0" encoding="utf-8"?>
<!-- Generator: Adobe Illustrator 21.1.0, SVG Export Plug-In . SVG Version: 6.00 Build 0)  -->
<svg version="1.1" id="EPS" xmlns="http://www.w3.org/2000/svg" xmlns:xlink="http://www.w3.org/1999/xlink" x="0px" y="0px"
	 viewBox="0 0 60 60" style="enable-background:new 0 0 60 60;" xml:space="preserve">
<g>
	<path d="M49,30h-2c-0.28,0-0.5,0.22-0.5,0.5v25H13c-4.69,0-8.5-3.81-8.5-8.5V13.5h23c1.38,0,2.5-1.12,2.5-2.5l0,0
		c0-0.28-0.22-0.5-0.5-0.5h-26c-1.1,0-2,0.9-2,2V47c0,6.35,5.15,11.5,11.5,11.5h34.5c1.1,0,2-0.9,2-2v-26C49.5,30.22,49.28,30,49,30
		z"/>
	<path d="M56.5,1.5h-14C42.22,1.5,42,1.72,42,2l0,0c0,1.38,1.12,2.5,2.5,2.5h8.88L23.29,34.59c-0.2,0.2-0.2,0.51,0,0.71
		c0.98,0.98,2.56,0.98,3.54,0L55.5,6.62v8.88c0,1.38,1.12,2.5,2.5,2.5l0,0c0.28,0,0.5-0.22,0.5-0.5v-14C58.5,2.4,57.6,1.5,56.5,1.5z
		"/>
</g>
</svg>
